src/assets/img/filtersMobile.svg

<svg width="17" height="17" viewBox="0 0 17 17" fill="none" xmlns="http://www.w3.org/2000/svg">
<path d="M8.28586 8.00433H0.477826C0.212367 8.00433 0 8.21669 0 8.48215C0 8.74761 0.212367 8.95998 0.477826 8.95998H8.28586C8.50885 10.0678 9.48928 10.9067 10.6644 10.9067C11.8395 10.9067 12.8199 10.0678 13.0429 8.95998H16.5186C16.7841 8.95998 16.9965 8.74761 16.9965 8.48215C16.9965 8.21669 16.7841 8.00433 16.5186 8.00433L13.0429 8.00433C12.8199 6.89648 11.8395 6.05763 10.6644 6.05763C9.49282 6.05763 8.50885 6.89294 8.28586 8.00433ZM12.1333 8.48215C12.1333 9.29269 11.4749 9.95102 10.6644 9.95102C9.85384 9.95102 9.1955 9.29269 9.1955 8.48215C9.1955 7.67162 9.85384 7.01328 10.6644 7.01328C11.4749 7.01328 12.1333 7.67162 12.1333 8.48215Z" fill="#4B4B4B"/>
<path d="M4.2792 13.8551H0.477826C0.212367 13.8551 0 14.0675 0 14.333C0 14.5984 0.212367 14.8108 0.477826 14.8108H4.2792C4.50219 15.9186 5.48262 16.7575 6.65771 16.7575C7.83281 16.7575 8.81324 15.9186 9.03623 14.8108L16.5186 14.8108C16.7841 14.8108 16.9965 14.5984 16.9965 14.333C16.9965 14.0675 16.7841 13.8551 16.5186 13.8551L9.03269 13.8551C8.8097 12.7473 7.82927 11.9084 6.65417 11.9084C5.47908 11.9084 4.50219 12.7473 4.2792 13.8551ZM8.12659 14.333C8.12659 15.1435 7.46825 15.8018 6.65771 15.8018C5.84718 15.8018 5.18884 15.1435 5.18884 14.333C5.18884 13.5224 5.84718 12.8641 6.65771 12.8641C7.46825 12.8641 8.12659 13.526 8.12659 14.333Z" fill="#4B4B4B"/>
<path d="M4.2792 2.18911L0.477826 2.18911C0.212367 2.18911 0 2.40147 0 2.66693C0 2.93239 0.212367 3.14476 0.477826 3.14476L4.2792 3.14476C4.50219 4.25261 5.48262 5.09146 6.65771 5.09146C7.83281 5.09146 8.81324 4.25261 9.03623 3.14476L16.5222 3.14476C16.7876 3.14476 17 2.93239 17 2.66693C17 2.40147 16.7876 2.18911 16.5222 2.18911L9.03269 2.18911C8.8097 1.08126 7.82927 0.242407 6.65417 0.242407C5.47908 0.242407 4.50219 1.07772 4.2792 2.18911ZM8.12659 2.66693C8.12659 3.47747 7.46825 4.13581 6.65771 4.13581C5.84718 4.13581 5.18884 3.47747 5.18884 2.66693C5.18884 1.8564 5.84718 1.19806 6.65771 1.19806C7.46825 1.19806 8.12659 1.8564 8.12659 2.66693Z" fill="#4B4B4B"/>
</svg>

<svg xmlns="http://www.w3.org/2000/svg" fill="none" viewBox="0 0 17 17"><path fill="#4B4B4B" d="M8.286 8.004H.478A.476.476 0 0 0 0 8.482c0 .266.212.478.478.478h7.808a2.43 2.43 0 0 0 2.378 1.947 2.43 2.43 0 0 0 2.379-1.947h3.476a.476.476 0 0 0 .478-.478.476.476 0 0 0-.478-.478h-3.476a2.43 2.43 0 0 0-2.379-1.946 2.43 2.43 0 0 0-2.378 1.946zm3.847.478a1.47 1.47 0 0 1-2.938 0 1.47 1.47 0 0 1 2.938 0zM4.28 13.855H.477a.476.476 0 0 0-.478.478c0 .265.212.478.478.478h3.801a2.43 2.43 0 0 0 2.379 1.947 2.43 2.43 0 0 0 2.378-1.947h7.483a.476.476 0 0 0 .478-.478.476.476 0 0 0-.478-.478H9.033a2.43 2.43 0 0 0-2.379-1.947 2.426 2.426 0 0 0-2.375 1.947zm3.847.478a1.47 1.47 0 1 1-2.94-.002 1.47 1.47 0 0 1 2.94.002zM4.28 2.19H.477A.476.476 0 0 0 0 2.666c0 .265.212.478.478.478h3.801A2.43 2.43 0 0 0 6.658 5.09a2.43 2.43 0 0 0 2.378-1.946h7.486A.476.476 0 0 0 17 2.667a.476.476 0 0 0-.478-.478h-7.49A2.43 2.43 0 0 0 6.655.242 2.423 2.423 0 0 0 4.28 2.19zm3.847.477a1.47 1.47 0 0 1-2.938 0 1.47 1.47 0 0 1 2.938 0z"/></svg>
